X:103
T:Paddington Fair. ThoH.103
Q:3/8=100
M:6/8
L:1/8
B:Thompson's Compleat Collection of 120 Favourite Hornpipes.
Z:Village Music Project, Simon Wilson 2016
O:England.
K:Bb
B3cBA|BFE DEF|G2g fed|cdB AGF|GAB cde|fgab2g|fdB ecA|B3B3:|
|:B3cBA|B2ba2b|g=ec d=ef|gaf =edc|B2gA2f|G2b agf|=efg cf=e|f3F3|
fed(e2g)|(c2e)(d2f)|(B2d)(c2e)|dcB AGF|GAB cde|fgab2g|fdB ecA |B3B,3:|

